X:1
T: The Champion Hornpipe
C:
R:Reel
Q: 232
K:A
M:4/4
L:1/8
cd|e^d ef e=d cB|AG AB cA EC|DF Bd CE Ac|((3BcB) ((3AGF) E2 cd|
e^d ef e=d cB|AG AB cA EC|DF Bd cB AG|A2 c2 A2|
|:GA|Be ^de ge de|cf =f^f af =f^f|ca Bg Af Ge|Fa f^d e2 GA|Be ^de ge de|
cf =f^f af =f^f|1ca Bg Af Ge|Fa f^d e2:|2ca Bg Af c^d|ed BG E2 cd|
e^d ef e=d cB|AG AB cA EC|DF Bd CE Ac|((3BcB) ((3AGF) E2 cd|
e^d ef e=d cB|AG AB cA EC|DF Bd cB AG|A2 c2 A2||
